images/yes-no/arrow-down.svg

<svg width="75" height="157" viewBox="0 0 75 157" fill="none" xmlns="http://www.w3.org/2000/svg">
<path fill-rule="evenodd" clip-rule="evenodd" d="M74.8734 0.523874C68.3249 6.39692 62.7895 12.7037 57.6882 19.173C49.7468 29.2566 43.4154 39.9365 38.5492 51.2308C33.0138 64.0973 29.4139 77.6324 27.1165 91.5289C24.8372 105.371 23.8061 119.521 23.987 133.688C24.0051 134.953 24.1136 136.2 24.0232 137.465C23.9689 138.17 23.8785 138.839 23.7519 139.507C28.7808 131.05 35.0398 118.961 40.2316 109.781C43.6686 103.727 46.6715 99.0103 47.8655 97.0225C48.0644 96.643 48.5348 96.4804 48.9328 96.6792C49.3126 96.8599 49.4754 97.3478 49.2765 97.7273C48.4081 99.8958 46.5449 105.154 43.8314 111.551C41.1903 117.786 37.6809 124.996 34.4791 131.791C30.3546 140.537 26.4291 148.398 24.1317 151.976C23.8242 152.446 23.4081 152.789 23.2815 153.205C22.7027 155.012 22.0876 155.12 21.7801 155.916C20.8575 157.199 19.5912 156.711 18.5601 156.928C16.6245 157.343 14.9422 155.807 13.6578 153.711C12.7714 152.247 12.8076 148.507 12.1383 146.717C9.75041 140.176 7.45301 133.526 5.66213 126.731C4.03405 120.641 2.73159 114.461 1.68239 108.263C0.976891 104.106 0.488468 99.9681 4.58497e-05 95.8117C0.0362253 95.4503 -0.0723131 95.0889 0.0904945 94.7456C0.940712 92.83 1.26633 93.4987 2.67733 91.9446C2.64115 91.7458 2.78586 91.5651 2.96676 91.5289C3.16575 91.4928 3.34664 91.6193 3.38282 91.8181C5.24607 92.7758 5.31842 92.0711 6.78369 93.589C7.01886 93.824 7.05504 94.1673 7.21785 94.4745C9.18963 102.679 11.7041 110.811 14.1643 119.015C14.9241 121.509 15.6657 124.002 16.4255 126.496C16.0275 114.84 16.4617 103.167 18.144 91.7458C19.5731 81.9694 21.8705 72.3557 25.1809 63.1396C30.644 47.8335 38.5673 33.3768 49.7649 20.8536C56.7475 13.0651 65.0507 6.23428 74.5116 0.0540302C74.6563 -0.0363244 74.8372 -0.0182534 74.9458 0.108243C75.0362 0.25281 75.0181 0.433519 74.8734 0.523874Z" fill="#FF5100"/>
</svg>

<svg width="75" height="157" fill="none" xmlns="http://www.w3.org/2000/svg"><path fill-rule="evenodd" clip-rule="evenodd" d="M74.873.524c-6.548 5.873-12.084 12.18-17.185 18.649-7.941 10.084-14.273 20.764-19.139 32.058-5.535 12.866-9.135 26.401-11.433 40.298-2.279 13.842-3.31 27.992-3.129 42.159.018 1.265.127 2.512.036 3.777a18.492 18.492 0 01-.271 2.042c5.029-8.457 11.288-20.546 16.48-29.726 3.437-6.054 6.44-10.77 7.633-12.759a.8.8 0 011.068-.343c.38.18.542.669.343 1.048-.868 2.169-2.731 7.427-5.445 13.824-2.64 6.235-6.15 13.445-9.352 20.24-4.124 8.746-8.05 16.607-10.347 20.185-.308.47-.724.813-.85 1.229-.58 1.807-1.194 1.915-1.502 2.711-.922 1.283-2.189.795-3.22 1.012-1.935.415-3.618-1.121-4.902-3.217-.887-1.464-.85-5.204-1.52-6.994-2.388-6.541-4.685-13.191-6.476-19.986-1.628-6.09-2.93-12.27-3.98-18.468C.977 104.106.488 99.968 0 95.812c.036-.362-.072-.723.09-1.066.85-1.916 1.176-1.247 2.587-2.801a.366.366 0 01.29-.416c.199-.036.38.09.416.29 1.863.957 1.935.252 3.4 1.77.236.235.272.578.435.886 1.972 8.204 4.486 16.336 6.946 24.54.76 2.494 1.502 4.987 2.261 7.481-.398-11.656.037-23.329 1.719-34.75 1.43-9.777 3.727-19.39 7.037-28.606 5.463-15.306 13.386-29.763 24.584-42.286 6.983-7.789 15.286-14.62 24.747-20.8a.333.333 0 01.434.054c.09.145.072.326-.073.416z" fill="#FF5100"/></svg>
